build/assets/img/cookie.svg

<svg width="113" height="114" viewBox="0 0 113 114" fill="none" xmlns="http://www.w3.org/2000/svg">
<path d="M31.8901 40.8109C31.8901 18.545 49.9354 0.5 72.1893 0.5C94.4551 0.5 112.5 18.5451 112.5 40.8109C112.5 63.0649 94.4552 81.1101 72.1893 81.1101C49.9353 81.1101 31.8901 63.065 31.8901 40.8109Z" fill="white" stroke="#4D4D4D"/>
<path d="M0.5 72.1934C0.5 49.9395 18.545 31.8943 40.8109 31.8943C63.065 31.8943 81.1101 49.9394 81.1101 72.1934C81.1101 94.4593 63.0649 112.504 40.8109 112.504C18.5451 112.504 0.5 94.4593 0.5 72.1934Z" fill="white" stroke="#4D4D4D"/>
<path d="M28.7531 70.6255C28.7531 66.5694 32.0375 63.2741 36.1045 63.2741C40.1592 63.2741 43.4442 66.5689 43.4442 70.6255C43.4442 74.6822 40.1592 77.977 36.1045 77.977C32.0375 77.977 28.7531 74.6817 28.7531 70.6255ZM38.1701 48.6486C38.1701 46.3233 40.0533 44.4401 42.3786 44.4401C44.7039 44.4401 46.5871 46.3233 46.5871 48.6486C46.5871 50.9739 44.7039 52.8571 42.3786 52.8571C40.0533 52.8571 38.1701 50.9739 38.1701 48.6486ZM47.5871 87.894C47.5871 84.697 50.1772 82.1081 53.3612 82.1081C56.5575 82.1081 59.147 84.6976 59.147 87.894C59.147 91.078 56.5582 93.668 53.3612 93.668C50.1766 93.668 47.5871 91.0786 47.5871 87.894ZM13.062 76.8996C13.062 74.5743 14.9452 72.6911 17.2705 72.6911C19.5958 72.6911 21.479 74.5743 21.479 76.8996C21.479 79.2249 19.5958 81.1081 17.2705 81.1081C14.9452 81.1081 13.062 79.2249 13.062 76.8996ZM57.0041 67.4826C57.0041 65.1573 58.8873 63.2741 61.2126 63.2741C63.5379 63.2741 65.4211 65.1573 65.4211 67.4826C65.4211 69.8079 63.5379 71.6911 61.2126 71.6911C58.8873 71.6911 57.0041 69.8079 57.0041 67.4826ZM28.7531 94.168C28.7531 92.7126 29.9312 91.5251 31.396 91.5251C32.8478 91.5251 34.0272 92.7114 34.0272 94.168C34.0272 95.6247 32.8478 96.811 31.396 96.811C29.9312 96.811 28.7531 95.6235 28.7531 94.168Z" fill="white" stroke="#4D4D4D"/>
<path d="M57.0029 18.8359C57.0029 15.6402 59.5918 13.0619 62.777 13.0619C65.9746 13.0619 68.5629 15.6408 68.5629 18.8359C68.5629 22.0311 65.9746 24.61 62.777 24.61C59.5918 24.61 57.0029 22.0317 57.0029 18.8359ZM75.8369 32.9614C75.8369 30.6361 77.7201 28.7529 80.0454 28.7529C82.3707 28.7529 84.2539 30.6361 84.2539 32.9614C84.2539 35.2868 82.3707 37.1699 80.0454 37.1699C77.7201 37.1699 75.8369 35.2868 75.8369 32.9614ZM78.9681 14.1274C78.9681 11.8021 80.8513 9.91895 83.1766 9.91895C85.5019 9.91895 87.3851 11.8021 87.3851 14.1274C87.3851 16.4527 85.5019 18.3359 83.1766 18.3359C80.8513 18.3359 78.9681 16.4527 78.9681 14.1274ZM91.528 47.0869C91.528 45.6327 92.7167 44.444 94.1709 44.444C95.6252 44.444 96.8139 45.6327 96.8139 47.0869C96.8139 48.5412 95.6252 49.7299 94.1709 49.7299C92.7167 49.7299 91.528 48.5412 91.528 47.0869Z" fill="#4D4D4D" stroke="#4D4D4D"/>
</svg>

<svg width="113" height="114" fill="none" xmlns="http://www.w3.org/2000/svg"><path d="M31.89 40.81C31.89 18.546 49.935.5 72.19.5c22.265 0 40.31 18.045 40.31 40.31 0 22.255-18.045 40.3-40.31 40.3-22.255 0-40.3-18.045-40.3-40.3z" fill="#fff" stroke="#4D4D4D"/><path d="M.5 72.193c0-22.253 18.045-40.299 40.31-40.299 22.255 0 40.3 18.045 40.3 40.3 0 22.265-18.045 40.31-40.3 40.31C18.546 112.504.5 94.459.5 72.194z" fill="#fff" stroke="#4D4D4D"/><path d="M28.753 70.626a7.35 7.35 0 017.352-7.352c4.054 0 7.34 3.295 7.34 7.352 0 4.056-3.286 7.351-7.34 7.351a7.35 7.35 0 01-7.352-7.352zm9.417-21.977a4.207 4.207 0 014.209-4.209 4.207 4.207 0 014.208 4.209 4.207 4.207 0 01-4.208 4.208 4.207 4.207 0 01-4.209-4.208zm9.417 39.245c0-3.197 2.59-5.786 5.774-5.786a5.785 5.785 0 015.786 5.786c0 3.184-2.589 5.774-5.786 5.774a5.78 5.78 0 01-5.774-5.774zM13.062 76.9a4.207 4.207 0 014.208-4.209 4.207 4.207 0 014.21 4.209 4.207 4.207 0 01-4.209 4.208 4.207 4.207 0 01-4.208-4.208zm43.942-9.417a4.207 4.207 0 014.209-4.209 4.207 4.207 0 014.208 4.209 4.207 4.207 0 01-4.208 4.208 4.207 4.207 0 01-4.209-4.208zm-28.25 26.685a2.642 2.642 0 012.642-2.643 2.64 2.64 0 012.631 2.643 2.64 2.64 0 01-2.631 2.643 2.642 2.642 0 01-2.643-2.643z" fill="#fff" stroke="#4D4D4D"/><path d="M57.003 18.836a5.772 5.772 0 015.774-5.774 5.775 5.775 0 110 11.548 5.772 5.772 0 01-5.774-5.774zM75.837 32.96a4.207 4.207 0 014.208-4.208 4.207 4.207 0 014.209 4.208 4.207 4.207 0 01-4.209 4.209 4.207 4.207 0 01-4.208-4.209zm3.131-18.834a4.207 4.207 0 014.209-4.208 4.207 4.207 0 014.208 4.208 4.207 4.207 0 01-4.208 4.209 4.207 4.207 0 01-4.209-4.209zm12.56 32.96a2.65 2.65 0 012.643-2.643 2.65 2.65 0 012.643 2.643 2.65 2.65 0 01-2.643 2.643 2.65 2.65 0 01-2.643-2.643z" fill="#4D4D4D" stroke="#4D4D4D"/></svg>
